X:1
T: The Lowlands of Scotland
C:
R:Reel
Q: 232
K:G
M:4/4
L:1/8
|:G3A BE E2|Bd cA BE E2|G2 GA BA Bd|eg fa ge dB|
G3A BE E2|Bd cA BE E2|G2 GA BA Bd|eg fd e2 ef|
g2 fg ed Bd|d2 ed Bd ef|g2 fg ed Bd|eg fd e2 ef|
g2 fg ed Bd|d2 ed Bd ef|ga ba gf ed|eg fa g2 g2:|
